polaris-icons/icons/ExploreImagesMajor.svg

<svg viewBox="0 0 20 20" xmlns="http://www.w3.org/2000/svg"><path d="M14.3846 11C12.5153 11 11 12.5153 11 14.3846C11 16.2539 12.5153 17.7692 14.3846 17.7692C14.9838 17.7692 15.5467 17.6135 16.0349 17.3403L17.4242 18.7296C17.7847 19.0901 18.3692 19.0901 18.7296 18.7296C19.0901 18.3692 19.0901 17.7847 18.7296 17.4242L17.3403 16.0349C17.6135 15.5467 17.7692 14.9838 17.7692 14.3846C17.7692 12.5153 16.2539 11 14.3846 11ZM12.8462 14.3846C12.8462 13.5349 13.5349 12.8462 14.3846 12.8462C15.2343 12.8462 15.9231 13.5349 15.9231 14.3846C15.9231 15.2343 15.2343 15.9231 14.3846 15.9231C13.5349 15.9231 12.8462 15.2343 12.8462 14.3846Z" fill="#5C5F62"/><path d="M0 1.48657C0 0.665562 0.665563 0 1.48658 0H16.3523C17.1733 0 17.8389 0.665562 17.8389 1.48658V9.71496C16.9643 9.20902 15.9488 8.91945 14.8658 8.91945C14.028 8.91945 13.2308 9.09268 12.5079 9.40527L11.7935 8.16526C11.6052 7.85804 11.1691 7.84813 10.961 8.14544L7.9284 12.8837L6.31299 11.0492C6.11478 10.851 5.78773 10.851 5.59943 11.0591L2.07823 15.0739C1.84038 15.4009 2.06832 15.8568 2.47465 15.8568H9.00167C9.12103 16.5683 9.36675 17.237 9.71496 17.8389H1.48658C0.665563 17.8389 0 17.1733 0 16.3523V1.48657ZM8.42393 5.45078C8.42393 4.36062 7.53198 3.46868 6.44183 3.46868C5.35167 3.46868 4.45973 4.36062 4.45973 5.45078C4.45973 6.54093 5.35167 7.43288 6.44183 7.43288C7.53198 7.43288 8.42393 6.54093 8.42393 5.45078Z" fill="#5C5F62"/></svg>

<svg viewBox="0 0 20 20" xmlns="http://www.w3.org/2000/svg"><path d="M14.385 11a3.385 3.385 0 1 0 1.65 6.34l1.39 1.39a.923.923 0 1 0 1.305-1.306l-1.39-1.39a3.385 3.385 0 0 0-2.956-5.035Zm-1.539 3.385a1.538 1.538 0 1 1 3.077 0 1.538 1.538 0 0 1-3.077 0Z" fill="#5C5F62"/><path d="M0 1.487c0-.821.666-1.487 1.487-1.487h14.865c.821 0 1.487.666 1.487 1.487v8.228a5.919 5.919 0 0 0-2.973-.796c-.838 0-1.635.174-2.358.486l-.714-1.24a.496.496 0 0 0-.833-.02l-3.033 4.739-1.615-1.835a.494.494 0 0 0-.714.01l-3.52 4.015a.49.49 0 0 0 .396.783h6.527c.119.711.365 1.38.713 1.982h-8.228a1.487 1.487 0 0 1-1.487-1.487v-14.865Zm8.424 3.964c0-1.09-.892-1.982-1.982-1.982-1.09 0-1.982.892-1.982 1.982 0 1.09.892 1.982 1.982 1.982 1.09 0 1.982-.892 1.982-1.982Z" fill="#5C5F62"/></svg>
